X: 1
T: the Bonniest Lass in a' the World
O: James Oswald, ed. 1760
B: James Oswald,  Caledonian Pocket Companion book 2 p.9
R: air
S: Handwritten MS by Barbara McOwen 4/93 (at Evelyn Murray's going-away party 2019-9-29)
Z: 2019 John Chambers <jc:trillian.mit.edu>
M: C
L: 1/8
K: G
"A"|: G>A |\
"G"B2 D2 "(Em)"E2 G2 | "C"c>B A<G "D7"E2 D>E | "G"G2 g2 "G7"d>e g<d | "C"e4 "D7"d2 e>f | "G"g>f e>d "(Em)"e>f g>B |
"Am"c>B A<G "D7"E2 D>E | "G"G2 g2 "(D7)"d>e c<d | "D7"B3 A "G"G2 "B":: e>f | "G"g>f e>d "(Em)"e>f g<e | "A7"a>g f>e "D7"f>g a<f |
"G"g>f g>a "(Em)"b>g a<b | "C"e4 "D7"d2 g>a | "G"b>a g>e de/f/ g>B | "Am"c>B A<G "D7"E2 D>E | "G"G2 g2 "(D7)"d>e c<d | "D7"B3 A "G"G2 :|
